invoice-text-arrow-right.svg

<svg fill="currentColor" viewBox="0 0 24 24"><path d="M3 22V3h18v10.34A6.005 6.005 0 0 0 13 19c0 .65.1 1.28.3 1.86L12 20l-3 2-3-2zM17 9V7H7v2zm-2 4v-2H7v2zm4 9v-2h-4v-2h4v-2l3 3z"/></svg>

<svg  viewBox="0 0 24 24" fill="currentColor"><path  d="M3 22V3H21V13.34C20.37 13.12 19.7 13 19 13C15.69 13 13 15.69 13 19C13 19.65 13.1 20.28 13.3 20.86L12 20L9 22L6 20L3 22M17 9V7H7V9H17M15 13V11H7V13H15M19 22V20H15V18H19V16L22 19L19 22Z"/></svg>
